!!!OTL: IM SCHOENSTEN WIESENGRUND
!!!ARE: Europa, Mitteleuropa, Deutschland
!!!SCT: F0998
!!!YEM: Copyright 1995, estate of Helmut Schaffrath.
**kern
*ICvox
*Ivox
*M3/4
*k[b-e-a-]
*E-:
{8E-
8G
=1
4.B-
8c
8B-
8A-
=2
4G
4G}
{4B-
=3
4.c
8B-
8A-
8G
=4
2F}
{4B-
=5
4.B-
8B-
8B-
8e-
=6
4e-
4c}
{4f
=7
2e-
4d
=8
4e-
4r}
{8B-
8G
=9
8.G
16F
4F}
{8c
8A-
=10
8.A-
16G
4G}
{8E-
8G
=11
4.B-
8B-
8B-
8e-
=12
4e-
4c}
{4f
=13
2e-
4d
=14
2e-}
==
!!!AGN: Natur - Lied
!!!ONB: ESAC (Essen Associative Code) Database: FINK
!!!AMT: simple triple
!!!AIN: vox
!!!EED: Helmut Schaffrath
!!!EEV: 1.0
*-
